X: 1467
T: Gay Charmer's Swing Waltz
B: australian traditional tunes wiki
M:3/4
L:1/8
R: Swing Waltz
Q: 1/4=100
K:C
V:1 
GA|"C"G3zE2|E2z2GA|G3zE2|E2z2EF|G2e2d2|c2B2A2|"G7"G3zF2|F3zDE|
G3zF2|F3zDE|G3zF2|F3zDE|F2G2A2|B2c2d2|"C"e6-|e4GA||
G3zE2|E3zGA|G3zE2|E4EF|G2A2B2|c2d2e2|"F"g4f2|f6|
g4f2|f4fg|"C"f3ze2|e4e2|ed ^cd ed|"G7"f2B3d|"C"c6-|"C7"c2B2_B2||
"F"A6-|A2G2A2|C6-|C2F2G2|A2^G2A2|A2d2zA|"C7"c4=B2|B6|
G6|G2^F2G2|C6-|C2E2F2|G2^F2G2|B2A2G2|"F"F4cc|c2c2B2||
A6-|A2G2A2|C6-|C2F2G2|A2^G2A2|A2d3A|"C7"c6|B6|
G6-|G2^F2G2|C6-|C2E2F2|G2^F2G2|B2A2G2|"F"F6-|F2z2||
% abcbook-tune_id 6342d53af742819543856548


% abcbook-boost 0
% abcbook-tablature 
% abcbook-transpose 
% abcbook-lastupdated 1665324366559
% abcbook-soundfonts 
% abcbook-repeats 1
% NFF Book 2008

